picto/arrival-left.svg

<svg class="color-immutable" width="24" height="24" viewBox="0 0 24 24" fill="none" xmlns="http://www.w3.org/2000/svg"><path d="M0 22.5V1.5C0 0.675 0.675 0 1.5 0H22.5C23.325 0 24 0.675 24 1.5V22.5C24 23.325 23.325 24 22.5 24H1.5C0.675 24 0 23.325 0 22.5Z" fill="#2D327D"/><path d="M3.23103 21.185H20.856C20.958 21.185 21.041 21.102 21.041 21C21.041 20.898 20.958 20.815 20.856 20.815H3.23103C3.12903 20.815 3.04603 20.898 3.04603 21C3.04503 21.102 3.12803 21.185 3.23103 21.185Z" fill="white"/><path d="M3.02103 13.874C3.18903 13.57 3.40103 13.293 3.64903 13.051C4.15203 12.561 4.78903 12.23 5.48003 12.1L11.239 11.085L14.575 3.378L16.039 3L16.336 10.187L19.002 9.717L19.563 7.69L20.718 7.54L21.111 10.83L16.465 13.488L5.35003 15.448C4.81003 15.543 4.25703 15.532 3.72103 15.417L3.72203 15.418C3.51803 15.374 3.33203 15.271 3.18703 15.123C2.86303 14.789 2.79503 14.281 3.02103 13.874Z" fill="white"/><path d="M6.139 16.68C6.4157 16.68 6.64 16.4557 6.64 16.179C6.64 15.9023 6.4157 15.678 6.139 15.678C5.86231 15.678 5.638 15.9023 5.638 16.179C5.638 16.4557 5.86231 16.68 6.139 16.68Z" fill="white"/><path d="M12.519 15.555C12.8189 15.555 13.062 15.3119 13.062 15.012C13.062 14.7121 12.8189 14.469 12.519 14.469C12.2191 14.469 11.976 14.7121 11.976 15.012C11.976 15.3119 12.2191 15.555 12.519 15.555Z" fill="white"/><path d="M14.083 15.279C14.3829 15.279 14.626 15.0359 14.626 14.736C14.626 14.4361 14.3829 14.193 14.083 14.193C13.7831 14.193 13.54 14.4361 13.54 14.736C13.54 15.0359 13.7831 15.279 14.083 15.279Z" fill="white"/></svg>

<svg class="color-immutable" width="24" height="24" viewBox="0 0 24 24" fill="none" xmlns="http://www.w3.org/2000/svg"><g clip-path="url(#a)"><path d="M0 22.5v-21C0 .675.675 0 1.5 0h21c.825 0 1.5.675 1.5 1.5v21c0 .825-.675 1.5-1.5 1.5h-21C.675 24 0 23.325 0 22.5Z" fill="#2D327D"/><path d="M3.231 21.185h17.625a.185.185 0 0 0 0-.37H3.231a.185.185 0 0 0 0 .37ZM3.021 13.874A3.57 3.57 0 0 1 5.48 12.1l5.759-1.015 3.336-7.707L16.039 3l.297 7.187 2.666-.47.561-2.027 1.155-.15.393 3.29-4.646 2.658-11.115 1.96a4.252 4.252 0 0 1-1.629-.031l.001.001a1.058 1.058 0 0 1-.701-1.544ZM6.139 16.68a.501.501 0 1 0 0-1.002.501.501 0 0 0 0 1.002ZM12.519 15.555a.543.543 0 1 0 0-1.086.543.543 0 0 0 0 1.086ZM14.083 15.279a.543.543 0 1 0 0-1.086.543.543 0 0 0 0 1.086Z" fill="#fff"/></g><defs><clipPath id="a"><path fill="#fff" d="M0 0h24v24H0z"/></clipPath></defs></svg>
